X: 1
T: Johnstown, The
M: 4/4
L: 1/8
R: reel
K: Bmin
BF F2 AFEF | BF F2 (3Bcd eg | f2 df ecde |1 fd (3Bcd cAFA :|2 fdBd B2 BA ||
E2 EF Gdcd | D2 FD ADFD | E2 EF Ggfg |1 efde (3Bcd AF :|2 efdB e4 ||
